storage/app/icons/phosphoricons/bold/pencil-ruler-bold.svg

<svg xmlns="http://www.w3.org/2000/svg" fill="currentColor" viewBox="0 0 256 256"><path d="M208 28h-48a20 20 0 0 0-20 20v160a20 20 0 0 0 20 20h48a20 20 0 0 0 20-20V48a20 20 0 0 0-20-20m-4 176h-40v-24h16a12 12 0 0 0 0-24h-16v-16h16a12 12 0 0 0 0-24h-16v-16h16a12 12 0 0 0 0-24h-16V52h40ZM80.49 23.51a12 12 0 0 0-17 0l-32 32A12 12 0 0 0 28 64v144a20 20 0 0 0 20 20h48a20 20 0 0 0 20-20V64a12 12 0 0 0-3.51-8.49ZM52 92h40v72H52Zm20-43 19 19H53ZM52 204v-16h40v16Z"/></svg>

<svg xmlns="http://www.w3.org/2000/svg" viewBox="0 0 256 256" fill="currentColor"><path d="M208,28H160a20,20,0,0,0-20,20V208a20,20,0,0,0,20,20h48a20,20,0,0,0,20-20V48A20,20,0,0,0,208,28Zm-4,176H164V180h16a12,12,0,0,0,0-24H164V140h16a12,12,0,0,0,0-24H164V100h16a12,12,0,0,0,0-24H164V52h40ZM80.49,23.51a12,12,0,0,0-17,0l-32,32A12,12,0,0,0,28,64V208a20,20,0,0,0,20,20H96a20,20,0,0,0,20-20V64a12,12,0,0,0-3.51-8.49ZM52,92H92v72H52ZM72,49,91,68H53ZM52,204V188H92v16Z"/></svg>
